X:1
T:Title
%%score { ( 1 3 ) | ( 2 4 ) }
L:1/8
M:3/4
K:G
V:1 treble nm="Grand Piano"
V:3 treble 
V:2 bass 
V:4 bass 
V:1
 z2 z2[Q:1/4=118] DD | [B,G]2 [B,G]2 [CG]2 | [B,G]2 [CF]2 [DG]2 | E2 E2 [DE]2 | [CE]6 | F2 E2 F2 | %6
 A6 | G2 F2 G2 | [FB]4 DD | [B,G]2 [B,G]2 [CG]2 | [CG]2 [CF]2 [DG]2 | E2 E2 [DE]2 | [CE]6 | %13
 F2 E2 F2 | A4 F2 | [B,G]6 | E2 E2 E2 | E2 F2 G2 | [^DB]2 [EB]2 [^CB]2 | [^DB]6 | E2 E2 F2 | %21
 G2 A2 B2 | [^CA]2 [B,CG]2[K:bass] [G,CE]2 | [F,D]6 | [G,B,D]2 [B,G]2 [CG]2 | [B,G]2 [CF]2 [DG]2 | %26
 E2 E2 [DE]2 | [CE]6 | F2 E2 F2 | A4 F2 | [B,DG]6 | [DB]2 [EB]2 [^CB]2 | [DA]6 | [^CG]2 [DG]2 G2 | %34
[M:9/8][K:bass] F8- F |[M:3/4][K:treble] [DG]2 [CA]2 [B,B]2 |[M:4/4] z4 z2 F2 |[M:2/4] [G,B,G]4 |] %38
V:2
 z2 z2 D,D, | [G,,D,]2 [G,,D,]2 [G,,E,]2 | [G,,D,]2 [A,,D,]2 [B,,G,]2 | %3
 [C,G,]2 [C,G,C]2 [B,,^G,]2 | [A,,A,]6 | [D,A,C]2 [D,G,C]2 [D,A,C]2 | [D,F,D]6 | %7
 [G,B,]2 [G,A,C]2 [G,B,D]2 | [^D,B,]4 [=D,B,][D,A,C] | [G,,G,]2 [G,,F,]2 [G,,E,]2 | %10
 [G,,D,]2 [A,,D,]2 [B,,G,]2 | [C,G,]2 [C,G,C]2 [B,,^G,]2 | [A,,A,]6 | [D,A,C]2 [D,G,C]2 [D,A,C]2 | %14
 [D,F,C]4 [D,A,C]2 | [G,,G,]6 | [E,G,]2 [E,A,C]2 [E,F,A,]2 | [E,G,B,]2 [E,A,E]2 [E,B,E]2 | %18
 [B,,B,]2 [B,,G,]2 [B,,E,]2 | [B,,F,]6 | [E,G,]2 [E,G,B,]2 [E,A,C]2 | %21
 [E,G,B,]2 [E,F,B,]2 [E,G,B,]2 | [A,,G,]2 A,,2 A,,2 | D,6 | G,,2 [G,,F,]2 [G,,E,]2 | %25
 [G,,D,]2 [A,,D,]2 [B,,G,]2 | [C,G,]2 [C,G,C]2 [B,,^G,]2 | [A,,A,]6 | [D,A,C]2 [D,G,C]2 [D,A,C]2 | %29
 [D,F,C]4 [D,CD]2 | G,,6 | G,2 [E,G,]2 [A,,G,]2 | [D,F,]6 | [A,,A,]2 [B,,G,]2 [^C,E,B,]2 | %34
[M:9/8] D8- D |[M:3/4] [B,,G,]2 [A,,F,]2 [G,,G,]2 |[M:4/4] z4 z2 .[B,D]2 |[M:2/4] G,,4 |] %38
V:3
 x6 | x6 | x6 | x6 | x6 | x6 | x6 | x6 | x6 | x6 | x6 | x6 | x6 | x6 | x6 | x6 | x6 | x6 | x6 | %19
 x6 | x6 | x6 | x4[K:bass] x2 | x6 | x6 | x6 | x6 | x6 | x6 | x6 | x6 | x6 | x6 | x6 | %34
[M:9/8][K:bass] z3 z C,2- C,3 |[M:3/4][K:treble] x6 |[M:4/4] [EA]6 z C |[M:2/4] x4 |] %38
V:4
 x6 | x6 | x6 | x6 | x6 | x6 | x6 | x6 | x6 | x6 | x6 | x6 | x6 | x6 | x6 | x6 | x6 | x6 | x6 | %19
 x6 | x6 | x6 | x6 | x6 | x6 | x6 | x6 | x6 | x6 | x6 | x6 | x6 | x6 | x6 | %34
[M:9/8] [D,A,-]6 A,2- A,/ z/ |[M:3/4] x6 |[M:4/4] [C,A,]6 D,-[D,A,] |[M:2/4] x4 |] %38

